X:10689
T:Merrily Kiss the Quaker's Wife
M:12/8
L:1/8
Q:1/4=200
C:Trad
R:slide
K:G
D|GAB D2 B c2 A BGE|GAB DEG A3 AGE|!
GAB D2 B c2 A BGE|GAB D2 E G3-G2:|!
A|BGG AGG BGG AGE|GAB DEG A3 AGA|!
BGG AGG BGG AGE|GAB D2 E G3-G2:|!
d|g2 g aga bge dBd|g2 g gab a3 agf|!
gag fgf efe dBA|GAB D2 E G3-G2:|!
